packages/foundations/assets/icons/functional/images/logos/subway_20.svg

<svg width="20" height="20" viewBox="0 0 20 20" fill="none" xmlns="http://www.w3.org/2000/svg">
<g clip-path="url(#clip0_185_1728)">
<path fill-rule="evenodd" clip-rule="evenodd" d="M15 2C16.6569 2 18 3.34315 18 5V15C18 16.6569 16.6569 18 15 18H5C3.34315 18 2 16.6569 2 15V5C2 3.34315 3.34315 2 5 2H15ZM5 4C4.48716 4 4.06449 4.38604 4.00673 4.88338L4 15C4 15.5128 4.38604 15.9355 4.88338 15.9933L15 16C15.5128 16 15.9355 15.614 15.9933 15.1166L16 5C16 4.48716 15.614 4.06449 15.1166 4.00673L5 4ZM8.66667 6V10.9063C8.66667 11.8023 9.2105 12.3333 10.0001 12.3333C10.7433 12.3333 11.2685 11.8629 11.3278 11.0606L11.3333 6H13.3333V11.0885C13.3333 13.2205 11.8046 14 10.0001 14C8.25578 14 6.7689 13.2698 6.67172 11.2971L6.66667 6H8.66667Z" fill="#1A1C1F"/>
</g>
<defs>
<clipPath id="clip0_185_1728">
<rect width="20" height="20" fill="white"/>
</clipPath>
</defs>
</svg>

<svg xmlns="http://www.w3.org/2000/svg" width="20" height="20" fill="none"><g clip-path="url(#a)"><path fill="#1A1C1F" fill-rule="evenodd" d="M15 2a3 3 0 0 1 3 3v10a3 3 0 0 1-3 3H5a3 3 0 0 1-3-3V5a3 3 0 0 1 3-3zM5 4a1 1 0 0 0-.993.883L4 15a1 1 0 0 0 .883.993L15 16a1 1 0 0 0 .993-.883L16 5a1 1 0 0 0-.883-.993zm3.667 2v4.906c0 .896.543 1.427 1.333 1.427.743 0 1.268-.47 1.328-1.272L11.333 6h2v5.089C13.333 13.22 11.805 14 10 14c-1.744 0-3.231-.73-3.328-2.703L6.667 6z" clip-rule="evenodd"/></g><defs><clipPath id="a"><path fill="#fff" d="M0 0h20v20H0z"/></clipPath></defs></svg>
